X:314
T:Innocent Hare
M:6/8
L:1/8
K:G
D | G2 G A2 A | BAB c2 c | d2 d GAB | AGF G2 :||
c | cec AAG | F2 E D2 c | cec AAG | F2 G A3 |
G2G A2A | BAB c2 c | d2d GAB | AGF G2 ||
